!!!!SEGMENT: pl-wtm--r-660-m--008_moniuszko-stanislaw--loteryja-no-7-spiewek.krn
!!!cenid: 18xx:3023
!!!COM: Moniuszko, Stanisław
!!!COM-rismid: pe30008351
!!!CDT: 1819/05/05-1872/06/04
!!!CNT: Polish
!!!GTL: Loteryja
!!!OTL: No. 7 - Śpiewek
!!!PDT: 1846
!!!AGN: Secular
!!!SMS-siglum: PL-Wtm
!!!SMS-shelfmark: R 660/M
!!!SMS-shelfwork: 008 G
!!!SMS-variant:
!!!SMS-altvar:
!!!NIFC-rismid: 1001090852
!!!URL-scan: http://repozytorium.nifc.pl/skany/pl-wtm-nut--r660m
!!!ONB-nifc: UWAGA: skany 0060-0062
!!!OMD: Allegro.
!!!AIN: 1 bass 1 cbass 1 cello 1 clars 1 cor 1 fagot 1 flt 1 oboe 1 tromp 1 viola 2 violn
!!!key: B-
**kern	**dynam	**kern	**text	**dynam	**kern	**dynam	**kern	**dynam	**kern	**dynam	**kern	**dynam	**kern	**dynam	**kern	**dynam	**kern	**dynam	**kern	**dynam	**kern	**dynam
*part11	*part11	*part10	*part10	*part10	*part9	*part9	*part8	*part8	*part7	*part7	*part6	*part6	*part5	*part5	*part4	*part4	*part3	*part3	*part2	*part2	*part1	*part1
*staff11	*	*staff10	*staff10	*	*staff9	*	*staff8	*	*staff7	*	*staff6	*	*staff5	*	*staff4	*	*staff3	*	*staff2	*	*staff1	*
*I"CelloB.	*	*I"Bibułkiewicz.	*	*	*I"Viola.	*	*I"Violino 2do	*	*I"Violino 1.	*	*I"in B. Trombe.	*	*I"in B. Corni.	*	*I"Fagotti.	*	*I"in B. Clarinetti.	*	*I"Oboi.	*	*I"Flauti.	*
*Icello&Icbass	*	*Ibass	*	*	*Iviola	*	*Ivioln	*	*Ivioln	*	*Itromp	*	*Icor	*	*Ifagot	*	*Iclars	*	*Ioboe	*	*Iflt	*
*ICstr	*	*ICvox	*	*	*ICstr	*	*ICstr	*	*ICstr	*	*ICbras	*	*ICbras	*	*ICww	*	*ICww	*	*ICww	*	*ICww	*
*clefF4	*	*clefF4	*	*	*clefC3	*	*clefG2	*	*clefG2	*	*clefG2	*	*clefG2	*	*clefF4	*	*clefG2	*	*clefG2	*	*clefG2	*
*	*	*	*	*	*	*	*	*	*	*	*ITrd1c2	*	*ITrd1c2	*	*	*	*ITrd1c2	*	*	*	*	*
*k[b-e-]	*	*k[b-e-]	*	*	*k[b-e-]	*	*k[b-e-]	*	*k[b-e-]	*	*k[b-e-]	*	*k[b-e-]	*	*k[b-e-]	*	*k[b-e-]	*	*k[b-e-]	*	*k[b-e-]	*
*B-:	*	*B-:	*	*	*B-:	*	*B-:	*	*B-:	*	*B-:	*	*B-:	*	*B-:	*	*B-:	*	*B-:	*	*B-:	*
*M6/8	*	*M6/8	*	*	*M6/8	*	*M6/8	*	*M6/8	*	*M6/8	*	*M6/8	*	*M6/8	*	*M6/8	*	*M6/8	*	*M6/8	*
*>[A,B,B,C]	*>[A,B,B,C]	*>[A,B,B,C]	*>[A,B,B,C]	*>[A,B,B,C]	*>[A,B,B,C]	*>[A,B,B,C]	*>[A,B,B,C]	*>[A,B,B,C]	*>[A,B,B,C]	*>[A,B,B,C]	*>[A,B,B,C]	*>[A,B,B,C]	*>[A,B,B,C]	*>[A,B,B,C]	*>[A,B,B,C]	*>[A,B,B,C]	*>[A,B,B,C]	*>[A,B,B,C]	*>[A,B,B,C]	*>[A,B,B,C]	*>[A,B,B,C]	*>[A,B,B,C]
=1	=1	=1	=1	=1	=1	=1	=1	=1	=1	=1	=1	=1	=1	=1	=1	=1	=1	=1	=1	=1	=1	=1
*>A	*>A	*>A	*>A	*>A	*>A	*>A	*>A	*>A	*>A	*>A	*>A	*>A	*>A	*>A	*>A	*>A	*>A	*>A	*>A	*>A	*>A	*>A
*2\right	*2\right	*2\right	*2\right	*2\right	*2\right	*2\right	*2\right	*2\right	*2\right	*2\right	*2\right	*2\right	*2\right	*2\right	*2\right	*2\right	*2\right	*2\right	*2\right	*2\right	*2\right	*2\right
*	*	*	*	*	*	*	*	*	*	*	*	*	*	*	*	*	*	*	*	*	*^	*
!!LO:TX:t=P:problem:all\left, middle, right:global
!!LO:TX:t=P:problem: p = p.
!	!	!	!	!	!	!	!	!	!	!	!	!	!	!	!	!	!	!	!	!	!LO:TX:t=/&colon;Bibułkiewicz sam/. honor, szczęscie, wziętość, powaga, rozum, piękność, wszystkoФ \nWy iestescie duszą dzisiejszego swiata, iego prawem, iego religią \niego bożyszczem.ФФ	!	!
!	!	!	!	!	!	!	!	!	!	!	!	!	!	!	!	!	!	!	!	!	!LO:TX:t=w tym hotelu\nW tym hotelu:color=grey	!	!
!	!	!	!	!	!	!	!	!	!LO:TX:t=P:problem:klamra [vl 1 vl2 vla]:dopisana ołówkiem	!	!	!	!	!	!	!	!	!	!	!	!	!	!
8BB-/L	ff	2.r	.	.	8r	.	8r	.	8r	.	8r	.	8r	.	8B-L 8BB-\	.	8r	.	8r	.	8r	8ryy	.
!	!	!	!	!	!	!	!	!	!	!LO:DY:rj	!	!LO:DY:rj	!	!LO:DY:rj	!	!	!	!LO:DY:rj	!	!LO:DY:rj	!	!	!LO:DY:rj
8BB-/	.	.	.	.	8fL 8B-\	.	8ffL 8dd\	ff	8ddd\L	ff	8ddL 8b-\	ff	8ffL 8B-/	ff	8d 8BB-\	.	8bb-L 8dd\	ff	8ddL 8b-/	ff	8ddd/L	8bb-\L	ff
8BB-/J	.	.	.	.	8fJ 8B-\	.	8ffJ 8dd\	.	8ddd\J	.	8ddJ 8b-\	.	8ffJ 8B-/	.	8dJ 8BB-\	.	8bb-J 8dd\	.	8ddJ 8b-/	.	8ddd/J	8bb-\J	.
8BB-/L	.	.	.	.	8fL 8B-\	.	8ffL 8dd\	.	8ddd\L	.	8ddL 8b-\	.	8ffL 8B-/	.	8dL 8BB-\	.	8bb-L 8dd\	.	8ddL 8b-/	.	8ddd/L	8bb-\L	.
8BB-/	.	.	.	.	8f 8B-\	.	8dd 8d\	.	8bb-\	.	8b- 8f\	.	8dd 8B-/	.	8B- 8BB-\	.	8ff 8dd\	.	8b- 8d/	.	8bb-/	8bb-\	.
8BB-/J	.	.	.	.	8fJ 8B-\	.	8ddJ 8d\	.	8bb-\J	.	8b-J 8f\	.	8ddJ 8B-/	.	8B-J 8BB-\	.	8ffJ 8dd\	.	8b-J 8d/	.	8bb-/J	8bb-\J	.
=2	=2	=2	=2	=2	=2	=2	=2	=2	=2	=2	=2	=2	=2	=2	=2	=2	=2	=2	=2	=2	=2	=2	=2
8BB-/L	.	2.r	.	.	8fL 8B-\	.	8ddL 8d/	.	8bb-\L	.	8b-L 8f/	.	8ddL 8B-/	.	8B-L 8BB-\	.	8ffL 8dd\	.	8b-L 8d/	.	8bb-/L	8bb-\L	.
8BB-/	.	.	.	.	8f 8B-\	.	8dd 8d/	.	8ff\	.	8f 8d/	.	8dd 8B-/	.	8B- 8BB-\	.	8dd 8b-\	.	8f 8d/	.	8ff/	8ff\	.
8BB-/J	.	.	.	.	8fJ 8B-\	.	8ddJ 8d/	.	8ff\J	.	8fJ 8d/	.	8ddJ 8B-/	.	8B-J 8BB-\	.	8ddJ 8b-\	.	8fJ 8d/	.	8ff/J	8ff\J	.
8BB-/L	.	.	.	.	8fL 8B-\	.	8ddL 8d/	.	8ff\L	.	8fL 8d/	.	8ddL 8B-/	.	8B-L 8BB-\	.	8ddL 8b-\	.	8fL 8d/	.	8ff/L	8ff\L	.
8BB-/	.	.	.	.	8f 8B-\	.	8b- 8d/	.	8dd\	.	8d 8B-/	.	8dd 8B-/	.	8B- 8BB-\	.	8b- 8d\	.	8f 8d/	.	8dd/	8dd\	.
8BB-/J	.	.	.	.	8fJ 8B-\	.	8b-J 8d/	.	8dd\J	.	8dJ 8B-/	.	8ddJ 8B-/	.	8B-J 8BB-\	.	8b-J 8d\	.	8fJ 8d/	.	8dd/J	8dd\J	.
=3!|:	=3!|:	=3!|:	=3!|:	=3!|:	=3!|:	=3!|:	=3!|:	=3!|:	=3!|:	=3!|:	=3!|:	=3!|:	=3!|:	=3!|:	=3!|:	=3!|:	=3!|:	=3!|:	=3!|:	=3!|:	=3!|:	=3!|:	=3!|:
*>B	*>B	*>B	*>B	*>B	*>B	*>B	*>B	*>B	*>B	*>B	*>B	*>B	*>B	*>B	*>B	*>B	*>B	*>B	*>B	*>B	*>B	*>B	*>B
*	*	*	*	*	*	*	*	*	*	*	*^	*	*	*	*^	*	*	*	*	*	*	*	*
8BB-/	.	8F\	Czło-	.	8f 8B-\	.	8b- 8d/	.	8b- 8d/	.	8B-/	8B-\	.	8dd 8B-/	.	8B- 8BB-\	8ryy	.	8b- 8d\	.	8b- 8d/	.	8b-/	8b-\	.
!	!LO:DY:rj:t=p	!	!	!	!LO:TX:a:t=sempre staccato.	!LO:DY:rj:t=p	!	!LO:DY:rj	!	!	!	!	!	!	!	!	!	!LO:DY:a	!	!	!	!	!	!	!
8BB-'/L	p	8F\	-wiek	.	8d'\L	p	8f'/L	p	8r	.	8r	8ryy	.	8r	.	8BB-'</L	8rCC	p	8r	.	8r	.	8r	8ryy	.
8C'/J	.	8F\	w iem	.	8d'\J	.	8f'/J	.	8r	.	8r	8ryy	.	8r	.	8C'</J	8rCC	.	8r	.	8r	.	8r	8ryy	.
*	*	*	*	*	*tremolo	*	*tremolo	*	*	*	*	*	*	*	*	*	*	*	*	*	*	*	*	*	*
!	!	!	!	!	!LO:TX:t=P:problem:staccato nad tremolo / tremolo-dots	!	!LO:TX:t=P:problem:staccato pod tremolo / tremolo-dots	!	!	!	!	!	!	!	!	!	!	!	!	!	!	!	!	!	!
8D/L	.	8F\	ży-	.	8d'\L	.	8fL 8B-'/	.	4r	.	4r	4ryy	.	4r	.	8D'</L	4rCC	.	4r	.	4r	.	4r	4ryy	.
8C/	.	8F\	-ciu	.	8d'\	.	8f 8B-'/	.	.	.	.	.	.	.	.	8C'</	.	.	.	.	.	.	.	.	.
8BB-/J	.	8F\	cno-	.	8d'\J	.	8fJ 8B-'/	.	8r	.	8r	8ryy	.	8r	.	8BB-'</J	8rCC	.	8r	.	8r	.	8r	8ryy	.
*	*	*	*	*	*Xtremolo	*	*Xtremolo	*	*	*	*	*	*	*	*	*	*	*	*	*	*	*	*	*	*
*	*	*	*	*	*	*	*	*	*	*	*v	*v	*	*	*	*	*	*	*	*	*	*	*v	*v	*
=4	=4	=4	=4	=4	=4	=4	=4	=4	=4	=4	=4	=4	=4	=4	=4	=4	=4	=4	=4	=4	=4	=4	=4
*	*	*	*	*	*	*	*	*	*	*	*	*	*	*	*	*	*	*	*	*^	*	*	*
8E-\	.	8G\	-tli-	.	8r	.	8r	.	8r	.	2.r	.	2.r	.	8E-/	2.r	.	2.r	.	8r	2.rA	.	2.r	.
!	!	!	!	!	!	!	!	!	!	!LO:DY:rj:t=p	!	!	!	!	!	!	!	!	!	!	!	!	!	!
8r	.	8G\	-wy	.	8e-'\L	.	8B-'/L	.	8g'/L	p	.	.	.	.	8r	.	.	.	.	8g'</L	.	.	.	.
8r	.	8r	.	.	8e-'\J	.	8B-'/J	.	8a'/J	.	.	.	.	.	8r	.	.	.	.	8a'</J	.	.	.	.
*	*	*	*	*	*tremolo	*	*	*	*	*	*	*	*	*	*	*	*	*	*	*	*	*	*	*
4r	.	4r	.	.	8e-\L	.	8gL 8B-'/	.	8b-'/L	.	.	.	.	.	4r	.	.	.	.	8b-'</L	.	.	.	.
.	.	.	.	.	8e-\	.	8B-'/	.	8a'/	.	.	.	.	.	.	.	.	.	.	8a'</	.	.	.	.
!LO:TX:b:t=1:color=grey	!	!	!	!	!	!	!	!	!	!	!	!	!	!	!	!	!	!	!	!	!	!	!	!
8r	.	8r	.	.	8e-\J	.	8B-'/J	.	8g'/J	.	.	.	.	.	8r	.	.	.	.	8g'</J	.	.	.	.
*	*	*	*	*	*Xtremolo	*	*	*	*	*	*	*	*	*	*	*	*	*	*	*	*	*	*	*
=5	=5	=5	=5	=5	=5	=5	=5	=5	=5	=5	=5	=5	=5	=5	=5	=5	=5	=5	=5	=5	=5	=5	=5	=5
8r	.	8A\	choć	.	8r	.	8r	.	8f'/L	.	2.r	.	2.r	.	8r	2.rGG	.	2.r	.	8f/	2.r	.	2.r	.
8F'\L	.	8A\	z pra-	.	8e-\L	.	8A'/L	.	8f'/	.	.	.	.	.	8F'</L	.	.	.	.	8r	.	.	.	.
8G'\J	.	8A\	-wej	.	8e-\J	.	8B-'/J	.	8f'/J	.	.	.	.	.	8G'</J	.	.	.	.	8r	.	.	.	.
*	*	*	*	*	*tremolo	*	*	*	*tremolo	*	*	*	*	*	*	*	*	*	*	*	*	*	*	*
!	!	!	!	!	!	!	!	!	!LO:TX:a:t=P:problem:staccato pod tremolo / tremolo-dots	!	!	!	!	!	!	!	!	!	!	!	!	!	!	!
8A'\L	.	8A\	nie	.	8e-\L	.	8c'/L	.	8f'/L	.	.	.	.	.	8A'</L	.	.	.	.	4r	.	.	.	.
8G'\	.	8G\	zbo-	.	8e-\	.	8B-'/	.	8f'/	.	.	.	.	.	8G'</	.	.	.	.	.	.	.	.	.
8F'\J	.	8A\	-czy	.	8e-\J	.	8A'/J	.	8f'/J	.	.	.	.	.	8F'</J	.	.	.	.	8r	.	.	.	.
!!pagebreak:original
*	*	*	*	*	*Xtremolo	*	*	*	*Xtremolo	*	*	*	*	*	*	*	*	*	*	*	*	*	*	*
=6	=6	=6	=6	=6	=6	=6	=6	=6	=6	=6	=6	=6	=6	=6	=6	=6	=6	=6	=6	=6	=6	=6	=6	=6
8B-\	.	8B-\	dro-	.	8r	.	8r	.	8r	.	2.r	.	2.r	.	8B-/	2.rGG	.	2.r	.	8r	2.rA	.	2.r	.
8r	.	8BB-/	-gi	.	8d\L	.	8fL 8B-/	.	8b-'/L	.	.	.	.	.	8r	.	.	.	.	8b-'</L	.	.	.	.
8r	.	8r	.	.	8d\J	.	8fJ 8B-/	.	8cc'/J	.	.	.	.	.	8r	.	.	.	.	8cc'</J	.	.	.	.
*	*	*	*	*	*tremolo	*	*tremolo	*	*	*	*	*	*	*	*	*	*	*	*	*	*	*	*	*
4r	.	4r	.	.	8d\L	.	8fL 8B-/	.	8dd'/L	.	.	.	.	.	4r	.	.	.	.	8dd'</L	.	.	.	.
.	.	.	.	.	8d\	.	8f 8B-/	.	8b-'/	.	.	.	.	.	.	.	.	.	.	8b-'</	.	.	.	.
8r	.	8r	.	.	8d\J	.	8fJ 8B-/	.	8g'/J	.	.	.	.	.	8r	.	.	.	.	8g'</J	.	.	.	.
*	*	*	*	*	*Xtremolo	*	*Xtremolo	*	*	*	*	*	*	*	*	*	*	*	*	*	*	*	*	*
=7	=7	=7	=7	=7	=7	=7	=7	=7	=7	=7	=7	=7	=7	=7	=7	=7	=7	=7	=7	=7	=7	=7	=7	=7
8r	.	8F\	nie	.	8r	.	8r	.	8f'/	.	2.r	.	2.r	.	8r	2.rGG	.	2.r	.	8f'</	2.r	.	2.r	.
8BB-/L	.	8F\	bę-	.	8d\L	.	8fL 8B-/	.	8r	.	.	.	.	.	8BB-'</L	.	.	.	.	8r	.	.	.	.
8C/J	.	8F\	-dzie	.	8d\J	.	8fJ 8B-/	.	8r	.	.	.	.	.	8C'</J	.	.	.	.	8r	.	.	.	.
*	*	*	*	*	*tremolo	*	*tremolo	*	*	*	*	*	*	*	*	*	*	*	*	*	*	*	*	*
8D/L	.	8F\	jed-	.	8d\L	.	8fL 8B-/	.	4r	.	.	.	.	.	8D'</L	.	.	.	.	4r	.	.	.	.
8C/	.	8F\	-nak	.	8d\	.	8f 8B-/	.	.	.	.	.	.	.	8C'</	.	.	.	.	.	.	.	.	.
8BB-/J	.	8F\	szczęś-	.	8d\J	.	8fJ 8B-/	.	8r	.	.	.	.	.	8BB-'</J	.	.	.	.	8r	.	.	.	.
*	*	*	*	*	*Xtremolo	*	*Xtremolo	*	*	*	*	*	*	*	*	*	*	*	*	*	*	*	*	*
=8	=8	=8	=8	=8	=8	=8	=8	=8	=8	=8	=8	=8	=8	=8	=8	=8	=8	=8	=8	=8	=8	=8	=8	=8
8E-\	.	8G\	-li-	.	8r	.	8r	.	8r	.	2.r	.	2.r	.	8E-'</	2.r	.	2.r	.	8r	2.rA	.	2.r	.
8r	.	8G\	-wy	.	8e-\L	.	8B-/L	.	8g'/L	.	.	.	.	.	8r	.	.	.	.	8g'</L	.	.	.	.
8r	.	8r	.	.	8e-\J	.	8B-/J	.	8a'/J	.	.	.	.	.	8r	.	.	.	.	8a'</J	.	.	.	.
*	*	*	*	*	*tremolo	*	*tremolo	*	*	*	*	*	*	*	*	*	*	*	*	*	*	*	*	*
8G\	.	4r	.	.	8e-\L	.	8B-/L	.	8b-'/L	.	.	.	.	.	4r	.	.	.	.	8b-'</L	.	.	.	.
!LO:TX:t=P:problem:4r poprawiona na 8r	!	!	!	!	!	!	!	!	!	!	!	!	!	!	!	!	!	!	!	!	!	!	!	!
8r	.	.	.	.	8e-\	.	8B-/	.	8a'/	.	.	.	.	.	.	.	.	.	.	8a'</	.	.	.	.
!LO:TX:b:t=2:color=grey	!	!	!	!	!	!	!	!	!	!	!	!	!	!	!	!	!	!	!	!	!	!	!	!
8r	.	8r	.	.	8e-\J	.	8B-/J	.	8g'/J	.	.	.	.	.	8r	.	.	.	.	8g'</J	.	.	.	.
*	*	*	*	*	*Xtremolo	*	*Xtremolo	*	*	*	*	*	*	*	*	*	*	*	*	*	*	*	*	*
=9	=9	=9	=9	=9	=9	=9	=9	=9	=9	=9	=9	=9	=9	=9	=9	=9	=9	=9	=9	=9	=9	=9	=9	=9
8r	.	8A\	bez	.	8r	.	8r	.	8f/L	.	2.r	.	2.r	.	8r	2.rGG	.	2.r	.	8f/	2.r	.	2.r	.
8F\L	.	8A\	gro-	.	8e-\L	.	8A/L	.	8f/	.	.	.	.	.	8F'</L	.	.	.	.	8r	.	.	.	.
8G\J	.	8A\	-sza	.	8e-\J	.	8B-/J	.	8f/J	.	.	.	.	.	8G'</J	.	.	.	.	8r	.	.	.	.
*	*	*	*	*	*tremolo	*	*	*	*tremolo	*	*	*	*	*	*	*	*	*	*	*	*	*	*	*
8A\L	.	8A\	gdy	.	8e-\L	.	8c/L	.	8f/L	.	.	.	.	.	8A'</L	.	.	.	.	4r	.	.	.	.
8G\	.	8G\	jest	.	8e-\	.	8B-/	.	8f/	.	.	.	.	.	8G'</	.	.	.	.	.	.	.	.	.
8F\J	.	8A\	u-	.	8e-\J	.	8A/J	.	8f/J	.	.	.	.	.	8F'</J	.	.	.	.	8r	.	.	.	.
*	*	*	*	*	*Xtremolo	*	*	*	*Xtremolo	*	*	*	*	*	*	*	*	*	*	*	*	*	*	*
=10	=10	=10	=10	=10	=10	=10	=10	=10	=10	=10	=10	=10	=10	=10	=10	=10	=10	=10	=10	=10	=10	=10	=10	=10
8B-\	.	8B-\	-bo-	.	8r	.	8r	.	8r	.	2.r	.	2.r	.	8B-'</	2.rGG	.	2.r	.	8r	2.rA	.	2.r	.
8r	.	8BB-/	-gi.	.	8d\L	.	8fL 8B-/	.	8b-'\L	.	.	.	.	.	8r	.	.	.	.	8b-'</L	.	.	.	.
8r	.	8r	.	.	8d\J	.	8fJ 8B-/	.	8cc'\J	.	.	.	.	.	8r	.	.	.	.	8cc'</J	.	.	.	.
*	*	*	*	*	*tremolo	*	*	*	*	*	*	*	*	*	*	*	*	*	*	*	*	*	*	*
8BB-/	.	8r	.	.	8d\L	.	8fL 8B-/	.	8dd'\L	.	.	.	.	.	4r	.	.	.	.	8dd'</L	.	.	.	.
8r	.	8D\	Gar-	.	8d\	.	8B-/	.	8b-'\	.	.	.	.	.	.	.	.	.	.	8b-'</	.	.	.	.
8r	.	8D\	-dzą	.	8d\J	.	8B-/J	.	8a'\J	.	.	.	.	.	8r	.	.	.	.	8a'</J	.	.	.	.
*	*	*	*	*	*Xtremolo	*	*	*	*	*	*	*	*	*	*	*	*	*	*	*	*	*	*	*
*	*	*	*	*	*	*	*	*	*	*	*	*	*	*	*v	*v	*	*	*	*v	*v	*	*	*
=11	=11	=11	=11	=11	=11	=11	=11	=11	=11	=11	=11	=11	=11	=11	=11	=11	=11	=11	=11	=11	=11	=11
*	*	*	*	*	*	*	*	*	*	*	*	*	*^	*	*	*	*	*	*	*	*^	*
!	!	!	!	!	!	!	!	!	!	!	!	!	!	!	!LO:DY:rj:a	!	!	!	!	!	!	!	!	!
8G\	.	(8B-\	cno-	.	8r	.	8r	.	8g/L	.	2.r	.	[2.dd/	2.r	p	2.r	.	2.r	.	8g/	.	8bb-'\L	2.re	.
8r	.	8A\)	.	.	8d\L	.	8B-/L	.	8a'/	.	.	.	.	.	.	.	.	.	.	8r	.	8aa'\	.	.
8r	.	8G\	-tą	.	8d\J	.	8B-/J	.	8g'/J	.	.	.	.	.	.	.	.	.	.	8r	.	8gg'\J	.	.
.	.	.	.	.	.	.	.	.	8qa/	.	.	.	.	.	.	.	.	.	.	.	.	(<8qaa/	.	.
*	*	*	*	*	*tremolo	*	*tremolo	*	*	*	*	*	*	*	*	*	*	*	*	*	*	*	*	*
8GG/	.	(8G\	gdy	.	8d\L	.	8B-/L	.	8g'/L	.	.	.	.	.	.	.	.	.	.	4r	.	8gg'\L)	.	.
8r	.	8F#X\)	.	.	8d\	.	8B-/	.	8f#X'/	.	.	.	.	.	.	.	.	.	.	.	.	8ff#X'\	.	.
8r	.	8G\	ta	.	8d\J	.	8B-/J	.	8g'/J	.	.	.	.	.	.	.	.	.	.	8r	.	8gg'\J	.	.
*	*	*	*	*	*Xtremolo	*	*Xtremolo	*	*	*	*	*	*	*	*	*	*	*	*	*	*	*	*	*
*	*	*	*	*	*	*	*	*	*	*	*	*	*v	*v	*	*	*	*	*	*	*	*v	*v	*
!!pagebreak:original
=12	=12	=12	=12	=12	=12	=12	=12	=12	=12	=12	=12	=12	=12	=12	=12	=12	=12	=12	=12	=12	=12	=12
8D/L	.	8A\	w nę-	.	8r	.	8r	.	8a'/L	.	2.r	.	2.dd/_>	.	2.r	.	2.r	.	2.r	.	8aa'\L	.
8C#X/	.	8D\	-dzy,	.	8F#X/L	.	8dL 8A/	.	8d'/J	.	.	.	.	.	.	.	.	.	.	.	8dd'\J	.
8Cn/J	.	8r	.	.	8F#/J	.	8dJ 8A/	.	8r	.	.	.	.	.	.	.	.	.	.	.	8r	.
8qD/	.	.	.	.	.	.	.	.	.	.	.	.	.	.	.	.	.	.	.	.	.	.
*	*	*	*	*	*tremolo	*	*tremolo	*	*	*	*	*	*	*	*	*	*	*	*	*	*	*
8C/L	.	8r	.	.	8F#/L	.	8dL 8A/	.	4r	.	.	.	.	.	.	.	.	.	.	.	4r	.
!	!	!LO:TX:t=P:problem:8.D poprawione na 8d	!	!	!	!	!	!	!	!	!	!	!	!	!	!	!	!	!	!	!	!
8BB-/	.	8.d\	frasz-	.	8F#/	.	8d 8A/	.	.	.	.	.	.	.	.	.	.	.	.	.	.	.
!LO:TX:b:t=3:color=grey	!	!	!	!	!	!	!	!	!	!	!	!	!	!	!	!	!	!	!	!	!	!
8AA/J	.	.	.	.	8F#/J	.	8dJ 8A/	.	8r	.	.	.	.	.	.	.	.	.	.	.	8r	.
!	!	!LO:TX:t=P:problem:16C poprawione na 16c	!	!	!	!	!	!	!	!	!	!	!	!	!	!	!	!	!	!	!	!
.	.	16c\	-ka	.	.	.	.	.	.	.	.	.	.	.	.	.	.	.	.	.	.	.
*	*	*	*	*	*Xtremolo	*	*Xtremolo	*	*	*	*	*	*	*	*	*	*	*	*	*	*	*
=13	=13	=13	=13	=13	=13	=13	=13	=13	=13	=13	=13	=13	=13	=13	=13	=13	=13	=13	=13	=13	=13	=13
!	!	!	!	!	!LO:TX:t=P:problem:8G poprawione na 8r	!	!	!	!	!	!	!	!	!	!	!	!	!	!	!	!	!
8GG/	.	(8B-\	cno-	.	8r	.	8r	.	8b-/L	.	2.r	.	2.dd/]	.	2.r	.	2.r	.	2.r	.	8bb-\L	.
8r	.	8A\)	.	.	8B-/L	.	8dL 8G/	.	8a/	.	.	.	.	.	.	.	.	.	.	.	8aa\	.
!	!	!	!	!	!LO:TX:t=P:problem:fermata dopisana ołówkiem między nutami	!	!LO:TX:t=P:problem:fermata dopisana ołówkiem między nutami	!	!LO:TX:t=P:problem:fermata dopisana ołówkiem między nutami	!	!	!	!	!	!	!	!	!	!	!	!	!
8r	.	8G\	-ta	.	8B-/J	.	8dJ 8G/	.	8g/J	.	.	.	.	.	.	.	.	.	.	.	8gg\J	.
.	.	8qA/	.	.	.	.	.	.	8qa/	.	.	.	.	.	.	.	.	.	.	.	8qaa/	.
*	*	*	*	*	*tremolo	*	*tremolo	*	*	*	*	*	*	*	*	*	*	*	*	*	*	*
8G\	.	(8G\	bez	.	8B-/L	.	8dL 8G/	.	8g/L	.	.	.	.	.	.	.	.	.	.	.	8gg\L	.
8r	.	8F#X\)	.	.	8B-/	.	8d 8G/	.	8f#X/	.	.	.	.	.	.	.	.	.	.	.	8ff#X\	.
8r	.	8G\	pie-	.	8B-/J	.	8dJ 8G/	.	8g/J	.	.	.	.	.	.	.	.	.	.	.	8gg\J	.
*	*	*	*	*	*Xtremolo	*	*Xtremolo	*	*	*	*	*	*	*	*	*	*	*	*	*	*	*
=14	=14	=14	=14	=14	=14	=14	=14	=14	=14	=14	=14	=14	=14	=14	=14	=14	=14	=14	=14	=14	=14	=14
*	*	*	*	*	*	*	*	*	*	*	*	*	*	*	*^	*	*	*	*	*	*^	*
!LO:TX:t=P:problem:mixed beam	!	!	!	!	!	!	!	!	!	!	!	!	!	!	!	!	!	!	!	!	!	!	!	!
8FF/L	.	8A\	-nię-	.	8A/L	.	8c/L	.	8a/L	.	8r	.	8r	.	8r	8ryy	.	8r	.	8r	.	8aa\	8re	.
8F\	.	8A\	-dzy...	.	8A 8F/	.	8e- 8c/	.	8a/	.	8fL 8F/	.	8ee-L 8cc\	.	8F/L	8F\L	.	8aL 8f\	.	8aL 8f/	<	8aaL 8ff\	4ryy	<
8F\J	<	8r	.	.	8AJ 8F/	.	8e-J 8c/	.	8a/J	.	8fJ 8F/	.	8ee-J 8cc\	<	8F/J	8F\J	<	8aJ 8f\	<	8aJ 8f/	.	8aaJ 8ff\	.	.
*	*	*	*	*	*	*	*	*	*	*	*tremolo	*	*tremolo	*	*tremolo	*tremolo	*	*	*	*	*	*	*	*
8F\L	.	4r	.	.	8AL 8F/	<	8e-L 8c/	<	8a\L	<	8fL 8F/	<	8ee-L 8cc\	.	8F/L	8F\L	.	8aL 8f\	.	8aL 8f/	.	8aaL 8ff\	4.ryy	.
8E-\	.	.	.	.	8c 8F/	.	8f 8c/	.	8cc\	.	8f 8F/	.	8ee- 8cc\	.	8F/	8F\	.	8cc 8a\	.	8cc 8a/	.	8ccc 8aa\	.	.
8E-\J	.	8r	.	.	8cJ 8F/	.	8fJ 8c/	.	8cc\J	.	8fJ 8F/	.	8ee-J 8cc\	.	8F/J	8F\J	.	8ccJ 8a\	.	8ccJ 8a/	.	8cccJ 8aa\	.	.
*	*	*	*	*	*	*	*	*	*	*	*	*	*	*	*Xtremolo	*Xtremolo	*	*	*	*	*	*	*	*
*	*	*	*	*	*	*	*	*	*	*	*	*	*	*	*	*	*	*	*	*	*	*v	*v	*
=15	=15	=15	=15	=15	=15	=15	=15	=15	=15	=15	=15	=15	=15	=15	=15	=15	=15	=15	=15	=15	=15	=15	=15
*	*	*	*	*	*	*	*	*	*	*	*^	*	*	*	*	*	*	*	*	*	*	*	*
*	*	*	*	*	*	*	*	*	*	*	*	*tremolo	*	*	*	*	*	*	*	*	*	*	*	*
!	!	!	!	!	!LO:TX:t=P:problem:mixed beam	!	!	!	!	!	!	!	!	!	!	!	!	!	!	!	!	!	!	!
8E-/L	.	2.r	.	.	8F/L	.	8fL 8c/	.	8cc\L	.	8f/L	8f\L	.	8ee-L 8cc\	.	8F/L	8F\L	.	8ccL 8a\	.	8ccL 8a\	.	8cccL 8aa\	.
8C/	.	.	.	.	8a\	.	8cc 8f/	.	8ee-\	.	8f/	8f\	.	8ee- 8cc\	.	8A/	8F\	.	8ee- 8cc\	.	8ee- 8cc\	.	8eee- 8ccc\	.
8C/J	.	.	.	.	8a\J	.	8ccJ 8f/	.	8ee-\J	.	8f/	8f\	.	8ee- 8cc\	.	8A/J	8F\J	.	8ee-J 8cc\	.	8ee-J 8cc\	.	8eee-J 8ccc\	.
*	*	*	*	*	*tremolo	*	*	*	*	*	*	*	*	*	*	*	*	*	*	*	*tremolo	*	*tremolo	*
8C/L	.	.	.	.	8a\L	.	8ccL 8f/	.	8ee-\L	.	8f/	8f\	.	8ee- 8cc\	.	8AL 8F\	4.ryy	.	8ee-L 8cc\	.	8ee-L 8cc\	.	8eee-L 8ccc\	.
8AA/	.	.	.	.	8a\	[	8ee- 8f/	.	8aa\	.	8f/	8f\	.	8ee- 8cc\	[[	8c 8F\	.	.	8aa 8cc\	.	8ee- 8cc\	[	8eee- 8ccc\	[
8AA/J	[	.	.	.	8a\J	.	8ee-J 8f/	[	8ccc\J	[	8f/J	8f\J	[	8ee-J 8cc\	.	8cJ 8F\	.	[	8aaJ 8cc\	[	8ee-J 8cc\	.	8eee-J 8ccc\	.
*	*	*	*	*	*Xtremolo	*	*	*	*	*	*Xtremolo	*Xtremolo	*	*Xtremolo	*	*	*	*	*	*	*Xtremolo	*	*Xtremolo	*
*	*	*	*	*	*	*	*	*	*	*	*	*	*	*	*	*v	*v	*	*	*	*	*	*	*
=16	=16	=16	=16	=16	=16	=16	=16	=16	=16	=16	=16	=16	=16	=16	=16	=16	=16	=16	=16	=16	=16	=16	=16
*	*	*	*	*	*	*	*	*	*	*	*	*	*	*	*	*	*	*	*	*^	*	*^	*
8FF/	sf	4r	.	.	8a\	sf	8ee- 8f/	sf	8eee-\	sf	8f/	8f\	sf	8ee- 8cc\	sf	8c 8F\	sf	8aa 8cc\	sf	8ee- 8cc\	4.ryy	sf	8eee- 8ccc'\	4.ryy	sf
8r	.	.	.	.	8r	.	8r	.	8r	.	8r	8ryy	.	8r	.	8r	.	8r	.	8r	.	.	8r	.	.
8r	.	8r	.	.	8r	.	8r	.	8r	.	8r	8ryy	.	8r	.	8r	.	8r	.	8r	.	.	8r	.	.
!LO:TX:b:t=4.:color=grey	!	!	!	!	!	!	!	!	!	!	!	!	!	!	!	!	!	!	!	!	!	!	!	!	!
4r;	.	4r;	.	.	4r;	.	4r;	.	4r;	.	4r;	4ryy	.	4r;	.	4r;	.	4r;	.	4r;	8ryy	.	4r;	8ryy	.
.	.	.	.	.	.	.	.	.	.	.	.	.	.	.	.	.	.	.	.	.	8ryy	.	.	8ryy	.
!	!	!	!	!	!	!	!	!	!	!	!	!	!	!	!	!	!	!	!	!	!	!LO:DY:rj:t=p	!	!	!LO:DY:rj:t=p
8r	.	8F\	Pie-	.	8r	.	8r	.	8r	.	8r	8ryy	.	8r	.	8r	.	8r	.	(<8f/	8rA	p >	(8ff/	8r	p >
*	*	*	*	*	*	*	*	*	*	*	*v	*v	*	*	*	*	*	*	*	*	*	*	*	*	*
=17	=17	=17	=17	=17	=17	=17	=17	=17	=17	=17	=17	=17	=17	=17	=17	=17	=17	=17	=17	=17	=17	=17	=17	=17
*	*	*	*	*	*	*	*	*	*	*	*	*	*	*	*^	*	*	*	*	*	*	*	*	*
!	!	!	!	!	!	!LO:DY:rj	!	!LO:DY:rj	!	!LO:DY:rj	!	!	!	!	!	!	!	!	!	!	!	!	!	!	!
8r	.	8d\	-nią-	.	8r	p	8r	p	8dd'\	p	2.r	.	2.r	.	8r	2.rGG	.	2.r	.	8dd/)	2.rf	]	8ddd\)	2.rf	]
!	!	!	!	!	!	!	!	!	!	!	!	!	!	!	!	!	!LO:DY:a	!	!	!	!	!	!	!	!
8BB-/L	p	8r	.	.	8B-/L	.	8f/L	.	8r	.	.	.	.	.	8BB-'</L	.	p	.	.	8r	.	.	8r	.	.
8C/J	.	8A\	-dze!	.	8B-/J	.	8f/J	.	8a'\	.	.	.	.	.	8C'</J	.	.	.	.	8a/	.	.	8aa\	.	.
*	*	*	*	*	*tremolo	*	*tremolo	*	*	*	*	*	*	*	*	*	*	*	*	*	*	*	*	*	*
!	!	!LO:TX:t=P:problem:diminuendolike accent	!	!LO:DY:a	!	!	!	!	!	!	!	!	!	!	!	!	!	!	!	!	!LO:TX:t=P:problem:diminuendolike accent	!	!LO:TX:t=P:problem:diminuendolike accent; stacc. poprawione na łuk 	!	!
8D/L	.	8c^\	lu-	.	8B-/L	.	8f/L	.	(8cc\L	.	.	.	.	.	8D'</L	.	.	.	.	(<8cc^/L	.	.	(8ccc^<\L	.	.
8BB-/	.	8B-\	-ba	.	8B-/	.	8f/	.	8b-\)	.	.	.	.	.	8BB-'</	.	.	.	.	8b-'</)	.	.	8bb-\)	.	.
8D/J	.	8A\	pie-	.	8B-/J	.	8f/J	.	8a'\J	.	.	.	.	.	8D'</J	.	.	.	.	8a'</J	.	.	8aa'\J	.	.
*	*	*	*	*	*Xtremolo	*	*Xtremolo	*	*	*	*	*	*	*	*	*	*	*	*	*	*	*	*	*	*
*	*	*	*	*	*	*	*	*	*	*	*	*	*	*	*	*	*	*	*	*v	*v	*	*	*	*
*	*	*	*	*	*	*	*	*	*	*	*	*	*	*	*	*	*	*	*	*	*	*v	*v	*
!!pagebreak:original
=18	=18	=18	=18	=18	=18	=18	=18	=18	=18	=18	=18	=18	=18	=18	=18	=18	=18	=18	=18	=18	=18	=18	=18
*	*	*	*	*	*	*	*	*	*	*	*	*	*	*	*	*	*	*^	*	*	*	*	*
!	!	!	!	!	!	!	!	!	!	!	!	!	!	!	!	!	!	!	!	!	!LO:SIC:v:s=4g/	!	!LO:SIC:v:s=4gg\	!
8E-\	.	8G\	-nią-	.	8r	.	8r	.	4g/	.	2.r	.	2.r	.	8E-\	2.r	.	8r	8ryy	.	4f/	.	4ff\	.
!	!	!	!	!	!	!	!	!	!	!	!	!	!	!	!	!	!	!LO:TX:a:t=Soli.	!	!LO:DY:rj	!	!	!	!
8r	.	8G\	-dze!	.	8B-/L	.	8g/L	.	.	.	.	.	.	.	8r	.	.	8e-'/L	8e-\L	p	.	.	.	.
8r	.	8r	.	.	8B-/J	.	8g/J	.	8r	.	.	.	.	.	8r	.	.	8d'/J	8d\J	.	8r	.	8r	.
*	*	*	*	*	*tremolo	*	*tremolo	*	*	*	*	*	*	*	*	*	*	*	*	*	*	*	*	*
4r	.	4r	.	.	8B-/L	.	8g/L	.	4r	.	.	.	.	.	4r	.	.	8e-'/L	8e-\L	.	4r	.	4r	.
.	.	.	.	.	8B-/	.	8g/	.	.	.	.	.	.	.	.	.	.	8d'/	8d\	.	.	.	.	.
8r	.	8G\	wy	.	8B-/J	.	8g/J	.	8r	.	.	.	.	.	8r	.	.	8e-'/J	8e-\J	.	8r	.	8r	.
*	*	*	*	*	*Xtremolo	*	*Xtremolo	*	*	*	*	*	*	*	*	*	*	*	*	*	*	*	*	*
*	*	*	*	*	*	*	*	*	*	*	*	*	*	*	*v	*v	*	*	*	*	*	*	*	*
=19	=19	=19	=19	=19	=19	=19	=19	=19	=19	=19	=19	=19	=19	=19	=19	=19	=19	=19	=19	=19	=19	=19	=19
*	*	*	*	*	*	*	*	*	*	*	*	*	*	*	*	*	*	*	*^	*^	*	*^	*
!	!	!	!	!	!	!	!	!	!	!	!	!	!	!	!	!	!	!	!LO:DY:a	!LO:DY:b:t=sf.	!	!	!	!	!	!
8r	.	4c\	ma-	.	8r	.	8r	.	8cc\	.	2.r	.	2.r	.	8r	.	2.eXtt/	2.ett\	sf	sf	8cc/	2.r	.	8ccc\	2.re	.
8C'/L	.	.	.	.	8B-/L	.	8g/L	.	8r	.	.	.	.	.	8C/L	.	.	.	.	.	8r	.	.	8r	.	.
8D'/J	.	8G\	-cie	.	8B-/J	.	8g/J	.	8g/	.	.	.	.	.	8D/J	.	.	.	.	.	8g/	.	.	8gg\	.	.
*	*	*	*	*	*tremolo	*	*tremolo	*	*	*	*	*	*	*	*	*	*	*	*	*	*	*	*	*	*	*
8En'\L	.	8B-\	czer-	.	8B-/L	.	8g/L	.	(8b-/L	.	.	.	.	.	8En/L	.	.	.	.	.	(<8b-/L	.	.	(8bb-\L	.	.
8C'\	.	8A\	-wo-	.	8B-/	.	8g/	.	8a/)	.	.	.	.	.	8C/	.	.	.	.	.	8a/)	.	.	8aa\)	.	.
8E'\J	.	8G\	-ną	.	8B-/J	.	8g/J	.	8g/J	.	.	.	.	.	8E/J	.	.	.	.	.	8g/J	.	.	8gg\J	.	.
*	*	*	*	*	*Xtremolo	*	*Xtremolo	*	*	*	*	*	*	*	*	*	*	*	*	*	*	*	*	*	*	*
*	*	*	*	*	*	*	*	*	*	*	*	*	*	*	*	*	*	*	*v	*v	*	*	*	*	*	*
=20	=20	=20	=20	=20	=20	=20	=20	=20	=20	=20	=20	=20	=20	=20	=20	=20	=20	=20	=20	=20	=20	=20	=20	=20	=20
8F\	.	8F\	si-	.	8r	.	8r	.	4f/	.	2.r	.	2.r	.	8F/	.	8f/	8f\	.	4f/	2.r	.	4ff\	2.re	.
8r	.	8F\	-łę	.	8A/L	.	8a/L	.	.	.	.	.	.	.	8r	.	8f/L	8f\L	.	.	.	.	.	.	.
!	!	!	!	!	!	!	!	!	!	!	!	!	!	!	!	!	!LO:SIC:v:n=1:s=8f#/J	!	!	!	!	!	!	!	!
!	!	!	!	!	!	!	!	!	!	!	!	!	!	!	!	!	!LO:SIC:v:n=2:s=8f#/J	!	!	!	!	!	!	!	!
8r	.	8r	.	.	8c/J	.	8a/J	.	8r	.	.	.	.	.	8r	.	8e-/J	8e-\J	.	8r	.	.	8r	.	.
*	*	*	*	*	*	*	*tremolo	*	*	*	*	*	*	*	*	*	*	*	*	*	*	*	*	*	*
!LO:TX:b:t=5:color=grey	!	!	!	!	!	!	!	!	!	!	!	!	!	!	!	!	!	!	!	!	!	!	!	!	!
4r	.	4r	.	.	8A/L	.	8a/L	.	4r	.	.	.	.	.	4r	.	8f/L	8f\L	.	4r	.	.	4r	.	.
!	!	!	!	!	!	!	!	!	!	!	!	!	!	!	!	!	!LO:SIC:v:n=1:s=8f#/	!	!	!	!	!	!	!	!
!	!	!	!	!	!	!	!	!	!	!	!	!	!	!	!	!	!LO:SIC:v:n=2:s=8f#/	!	!	!	!	!	!	!	!
.	.	.	.	.	8c/	.	8a/	.	.	.	.	.	.	.	.	.	8e-/	8e-\	.	.	.	.	.	.	.
8r	.	8F\	-wy	.	8A/J	.	8a/J	.	8r	.	.	.	.	.	8r	.	8f/J	8f\J	.	8r	.	.	8r	.	.
*	*	*	*	*	*	*	*Xtremolo	*	*	*	*	*	*	*	*	*	*	*	*	*	*	*	*	*	*
*	*	*	*	*	*	*	*	*	*	*	*	*	*	*	*	*	*	*	*	*	*	*	*v	*v	*
=21	=21	=21	=21	=21	=21	=21	=21	=21	=21	=21	=21	=21	=21	=21	=21	=21	=21	=21	=21	=21	=21	=21	=21	=21
*	*	*	*	*	*	*	*	*	*	*	*	*	*^	*	*	*	*	*	*	*	*	*	*	*
!	!	!	!	!	!	!	!	!	!	!	!	!	!	!	!LO:DY:rj:a	!	!	!	!	!	!	!	!	!	!
8D\	.	8F#X\	wszyst-	.	8r	.	8r	.	8f#X'/L	<	2.r	.	[<2.dd/	2.re	p	2.r	.	(4.f#X/	(4.f#\	.	(4.ff#X/	(2.cc\	.	2.r	.
8r	.	8A\	-kie	.	8c\L	.	8aL 8d/	.	8a'/	.	.	.	.	.	.	.	.	.	.	.	.	.	.	.	.
8r	.	8c\	speł-	.	8c\J	.	8aJ 8d/	.	8cc'/J	[	.	.	.	.	.	.	.	.	.	.	.	.	.	.	.
8F#X\	.	8e-\L	-nia-	.	8r	.	8r	.	(8ee-X\L	.	.	.	.	.	.	.	.	4.a/	4.d\	.	4.aa/	.	.	.	.
8r	.	8d\J	.	.	8c\L	.	8aL 8d/	.	8dd\)	>	.	.	.	.	.	.	.	.	.	.	.	.	.	.	.
8r	.	8c\	-cie	.	8c\J	.	8aJ 8d/	.	8cc\J	]]	.	.	.	.	.	.	.	.	.	.	.	.	.	.	.
=22	=22	=22	=22	=22	=22	=22	=22	=22	=22	=22	=22	=22	=22	=22	=22	=22	=22	=22	=22	=22	=22	=22	=22	=22	=22
*	*	*	*	*	*tremolo	*	*tremolo	*	*	*	*	*	*	*	*	*	*	*	*	*	*	*	*	*	*
8G\	.	8B-\L	żą-	.	8B-/L	.	8b-L 8d/	.	8r	.	2.r	.	8dd/]	2.re	.	2.r	.	8b-/)	8g\)	.	8gg/)	8b-\)	.	2.r	.
8r	.	8c\J	.	.	8B-/	.	8b- 8d/	.	8b-'\L	.	.	.	8r	.	.	.	.	8r	8ryy	.	8r	8ryy	.	.	.
8r	.	8d\	-dze,	.	8B-/J	.	8b-J 8d/	.	8bb-'\J	.	.	.	8r	.	.	.	.	8r	8ryy	.	8r	8ryy	.	.	.
8E-\	.	8e-\L	z wa-	.	8e-\L	.	8g/L	.	8r	.	.	.	4r	.	.	.	.	4r	4ryy	.	4r	4ryy	.	.	.
8r	.	8G\J	.	.	8e-\	.	8g/	.	8g'\L	.	.	.	.	.	.	.	.	.	.	.	.	.	.	.	.
8r	.	8c\	-mi	.	8e-\J	.	8g/J	.	8cc'\J	.	.	.	8r	.	.	.	.	8r	8ryy	.	8r	8ryy	.	.	.
*	*	*	*	*	*	*	*	*	*	*	*	*	*	*	*	*	*	*v	*v	*	*	*	*	*	*
*	*	*	*	*	*	*	*	*	*	*	*	*	*v	*v	*	*	*	*	*	*v	*v	*	*	*
=23	=23	=23	=23	=23	=23	=23	=23	=23	=23	=23	=23	=23	=23	=23	=23	=23	=23	=23	=23	=23	=23	=23
8F\	.	4B-\	tyl-	.	8d\L	.	8f/L	.	8r	.	2.r	.	2.r	.	2.r	.	2.r	.	2.r	.	2.r	.
8r	.	.	.	.	8d\	.	8f/	.	8f\L	.	.	.	.	.	.	.	.	.	.	.	.	.
8r	.	8B-\	-ko	.	8d\J	.	8f/J	.	8ff\J	.	.	.	.	.	.	.	.	.	.	.	.	.
8F\	.	8A\L	ży-	.	8c\L	.	8e-/L	.	8r	.	.	.	.	.	.	.	.	.	.	.	.	.
8r	.	8G\J	.	.	8c\	.	8e-/	.	8g'\L	.	.	.	.	.	.	.	.	.	.	.	.	.
8r	.	8A\	-cie	.	8c\J	.	8e-/J	.	8a'\J	.	.	.	.	.	.	.	.	.	.	.	.	.
*	*	*	*	*	*Xtremolo	*	*Xtremolo	*	*	*	*	*	*	*	*	*	*	*	*	*	*	*
=24	=24	=24	=24	=24	=24	=24	=24	=24	=24	=24	=24	=24	=24	=24	=24	=24	=24	=24	=24	=24	=24	=24
*^	*	*	*	*	*	*	*	*	*	*	*	*	*	*	*^	*	*	*	*	*	*	*
*tremolo	*tremolo	*	*	*	*	*	*	*	*	*	*	*	*	*	*	*	*	*	*	*	*	*	*	*
!	!LO:TX:t=P:problem:łuk	!	!	!	!	!	!	!	!	!	!	!	!	!	!	!	!	!	!	!	!	!	!	!
!	!LO:TX:t=P:problem:staccato pod tremolo / tremolo-dots	!	!	!	!	!	!	!	!	!	!	!	!	!	!	!	!	!	!	!	!	!	!	!
16BB-/LL	(8BB-'\L	.	4B-\	mi-	.	(16B-/LL	.	8d/L	.	8b-\	.	2.r	.	2.r	.	8r	2.r	.	8r	.	8r	.	8r	.
16BB-/	.	.	.	.	.	16F/	.	.	.	.	.	.	.	.	.	.	.	.	.	.	.	.	.	.
16BB-/	8BB-'\	.	.	.	.	16F/	.	8d/	.	8r	.	.	.	.	.	8r	.	.	8r	.	8r	.	8r	.
16BB-/	.	.	.	.	.	16F/	.	.	.	.	.	.	.	.	.	.	.	.	.	.	.	.	.	.
!	!	!	!	!	!	!	!	!	!	!	!	!	!	!	!	!	!	!	!	!	!LO:TX:t=P:problem:8f poprawione na 8dd	!	!	!
16BB-/	8BB-'\	.	8d\	-łe,	.	16F/	.	8f'/J	.	8dd'\	.	.	.	.	.	(<8f/	.	.	(8ff/	.	(8dd/	.	(8ddd\	.
16BB-/	.	.	.	.	.	16F/JJ	.	.	.	.	.	.	.	.	.	.	.	.	.	.	.	.	.	.
*	*	*	*	*	*	*tremolo	*	*	*	*	*	*	*	*	*	*	*	*	*	*	*	*	*	*
16BB-/	8BB-'\	.	8B-\	tak,	.	16F/LL)	.	8d|/L	.	8b-'\L	.	.	.	.	.	8d/L)	.	.	8dd/)	.	8b-/L)	.	8bb-\)	.
16BB-/	.	.	.	.	.	16F/	.	.	.	.	.	.	.	.	.	.	.	.	.	.	.	.	.	.
16BB-/	8BB-'\	.	8B-\	tak,	.	16F/	.	8d|/	.	8b-'\	.	.	.	.	.	8d'</	.	.	8r	.	8b-'/	.	8r	.
16BB-/	.	.	.	.	.	16F/	.	.	.	.	.	.	.	.	.	.	.	.	.	.	.	.	.	.
!	!	!	!	!	!	!	!	!	!	!	!	!	!	!	!	!	!	!	!LO:TX:t=P:problem:brak początku łuku	!	!	!	!	!
16BB-/	8BB-'\J)	.	8B-\	tak	.	16F/	.	8d|/J	.	8b-'\J	.	.	.	.	.	(<8d/J	.	.	(8dd/	.	(8b-/J	.	(8bb-\	.
16BB-/JJ)	.	.	.	.	.	16F/JJ	.	.	.	.	.	.	.	.	.	.	.	.	.	.	.	.	.	.
*	*	*	*	*	*	*	*	*	*	*	*	*	*	*	*	*	*	*	*	*	*	*	*	*
!!pagebreak:original
=25	=25	=25	=25	=25	=25	=25	=25	=25	=25	=25	=25	=25	=25	=25	=25	=25	=25	=25	=25	=25	=25	=25	=25	=25
*	*	*	*	*	*	*	*	*	*	*	*	*	*	*	*	*	*	*	*^	*	*^	*	*	*
*	*tremolo	*	*	*	*	*	*	*	*	*	*	*	*	*	*	*	*	*	*	*	*	*	*	*	*	*
!	!	!	!	!	!	!	!	!	!	!	!	!	!	!	!	!LO:TX:t=P:problem:brak zakończenia łuku	!	!	!	!	!	!LO:TX:t=P:problem:brak zakończenia łuku	!	!	!	!
16BB-/LL	8BB-\L	.	8F\	z wa-	.	16F/LL	.	8d/L	.	8f/L	.	2.r	.	2.r	.	8d\L)	2.rGG	.	8f/)	2.r	.	8f/L)	4.ryy	.	8ff\)	.
16BB-/	.	.	.	.	.	16F/	.	.	.	.	.	.	.	.	.	.	.	.	.	.	.	.	.	.	.	.
16BB-/	8BB-\	.	8F\	-mi	.	16F/	.	8d/	.	8f/	.	.	.	.	.	8d\	.	.	8r	.	.	8f/	.	.	8r	.
16BB-/	.	.	.	.	.	16F/	.	.	.	.	.	.	.	.	.	.	.	.	.	.	.	.	.	.	.	.
16BB-/	8BB-\	.	8F\	to	.	16F/	.	8d/J	.	8f/J	.	.	.	.	.	8d\J	.	.	8r	.	.	8f/J	.	.	8r	.
16BB-/	.	.	.	.	.	16F/	.	.	.	.	.	.	.	.	.	.	.	.	.	.	.	.	.	.	.	.
16BB-/	8BB-\	.	8E-\	ży-	.	16F/	.	8c/L	.	8e-/L	.	.	.	.	.	(4.c\	.	.	(<4.e-/	.	.	(4.a/	[4.f\	.	4r	.
16BB-/	.	.	.	.	.	16F/	.	.	.	.	.	.	.	.	.	.	.	.	.	.	.	.	.	.	.	.
16BB-/	8BB-\	.	8C\	-cie	.	16F/	.	8A/	.	8c/	.	.	.	.	.	.	.	.	.	.	.	.	.	.	.	.
16BB-/	.	.	.	.	.	16F/	.	.	.	.	.	.	.	.	.	.	.	.	.	.	.	.	.	.	.	.
16BB-/	8BB-\J	.	8F\	jest	.	16F/	.	8A/J	.	8f/J	.	.	.	.	.	.	.	.	.	.	.	.	.	.	8r	.
16BB-/JJ	.	.	.	.	.	16F/JJ	.	.	.	.	.	.	.	.	.	.	.	.	.	.	.	.	.	.	.	.
*Xtremolo	*Xtremolo	*	*	*	*	*Xtremolo	*	*	*	*	*	*	*	*	*	*	*	*	*	*	*	*	*	*	*	*
=26	=26	=26	=26	=26	=26	=26	=26	=26	=26	=26	=26	=26	=26	=26	=26	=26	=26	=26	=26	=26	=26	=26	=26	=26	=26	=26
8BB-/	8BB-\	.	8D\	mi-	.	8F/	.	8B-/	.	8d/	.	2.r	.	2.r	.	8B-\)	2.rFF	.	8d/)	8rF	.	8b-/)	8f\]	.	2.r	.
8rA	8rEE	.	8D\	-łe,	.	8r	.	8r	.	8r	.	.	.	.	.	8r	.	.	8r	8ryy	.	8r	8ryy	.	.	.
!	!	!	!	!	!	!	!	!	!	!	!LO:HP:t=cres&colon;	!	!	!	!	!	!	!	!	!	!	!	!	!	!	!
8B-/	8rEE	<	8B-\	tam	.	8B-/	<	8b-/	<	8b-/	<	.	.	.	.	8B-\	.	<	8b-/	8b-\	<	8b-/	8b-\	<	.	.
8F/	4rEE	.	8F\	z wa-	.	8F/	.	8f/	.	8f/	.	.	.	.	.	8F\	.	.	8f/	8f\	.	8f/	8f\	.	.	.
8rA	.	.	8F\	-mi	.	8r	.	8r	.	8r	.	.	.	.	.	8r	.	.	8r	8ryy	.	8r	8ryy	.	.	.
8d/	8rEE	.	8d\	to	.	8d\	.	8dd\	.	8dd\	.	.	.	.	.	(8d\	.	.	8dd/	8dd\	.	8dd/	8dd\	.	.	.
=27	=27	=27	=27	=27	=27	=27	=27	=27	=27	=27	=27	=27	=27	=27	=27	=27	=27	=27	=27	=27	=27	=27	=27	=27	=27	=27
8B-/	4rEE	.	8B-\	ży-	.	8B-\	.	8b-\	.	8b-\	.	2.r	.	2.r	.	8B-\)	4rEE	.	8b-/	8b-\	.	8b-/	8b-\	.	2.r	.
8rA	.	.	8B-\	-cie	.	8r	.	8r	.	8r	.	.	.	.	.	8r	.	.	8r	8ryy	.	8r	8ryy	.	.	.
8rA	8rEE	.	8d\	jest	.	8d\	.	8dd\	.	8dd\	.	.	.	.	.	8d\	8rEE	.	8dd/	8dd\	.	8dd/	8dd\	.	.	.
*tremolo	*tremolo	*	*	*	*	*tremolo	*	*tremolo	*	*tremolo	*	*	*	*	*	*	*	*	*	*	*	*	*	*	*	*
!	!	!	!	!	!	!	!	!	!	!	!	!	!	!	!	!	!	!LO:DY:rj	!	!	!	!	!	!	!	!
16F/LL	8F\L	f	(4.f\	mi-	.	8e-L 8c\	f	16ccLL 16f\	f	16ffLL 16a\	f	.	.	.	.	(4.f (4.FF\	4.ryy	f	(<4.ff &(4.a\	4.ryy	f	(4.ee- (4.cc\	4.ryy	f	.	.
16F/	.	.	.	.	.	.	.	16cc 16f\	.	16ff 16a\	.	.	.	.	.	.	.	.	.	.	.	.	.	.	.	.
16F/	8F\	.	.	.	.	8e- 8c\	.	16cc 16f\	.	16ff 16a\	.	.	.	.	.	.	.	.	.	.	.	.	.	.	.	.
16F/	.	.	.	.	.	.	.	16cc 16f\	.	16ff 16a\	.	.	.	.	.	.	.	.	.	.	.	.	.	.	.	.
16F/	8F\J	.	.	.	.	8e-J 8c\	.	16cc 16f\	.	16ff 16a\	.	.	.	.	.	.	.	.	.	.	.	.	.	.	.	.
16F/JJ	.	.	.	.	.	.	.	16ccJJ 16f\	.	16ffJJ 16a\	.	.	.	.	.	.	.	.	.	.	.	.	.	.	.	.
*	*	*	*	*	*	*	*	*Xtremolo	*	*Xtremolo	*	*	*	*	*	*	*	*	*	*	*	*	*	*	*	*
*	*	*	*	*	*	*	*	*	*	*	*	*	*	*	*	*v	*v	*	*	*	*	*v	*v	*	*	*
=28	=28	=28	=28	=28	=28	=28	=28	=28	=28	=28	=28	=28	=28	=28	=28	=28	=28	=28	=28	=28	=28	=28	=28	=28
*t	*	*	*	*	*	*Xtremolo	*	*	*	*	*	*tremolo	*	*tremolo	*	*	*	*	*	*	*	*	*	*
!	!	!LO:DY:t=ff.	!	!	!	!	!	!	!	!	!	!	!LO:DY:rj	!	!LO:DY:rj	!	!	!	!	!	!	!	!	!
16BB-/LL	8BB-\L	ff	4B-\)	-łe.	.	8d/	.	8b-\	.	8b-\	.	8b-L 8B-/	ff	8b-L 8B-/	ff	8dL 8BB-\))	.	8b-/)	8b-\&)	.	8dd 8b-\))	.	8r	.
16BB-/	.	.	.	.	.	.	.	.	.	.	.	.	.	.	.	.	.	.	.	.	.	.	.	.
*	*	*	*	*	*	*tremolo	*	*	*	*	*	*	*	*	*	*	*	*	*	*	*	*	*	*
!	!	!	!	!	!	!LO:TX:t=P:problem:łuk/ligatura, zakodowany zgodnie z prośbą J.I.	!	!	!	!	!	!	!	!	!	!	!	!	!	!	!	!	!	!
16BB-/	8BB-\	.	.	.	.	16B-/LL	ff	8r	.	8r	.	8b- 8B-/	.	8b- 8B-/	.	8d 8B-\	ff	8r	8ryy	.	8r	.	8r	.
16BB-/	.	.	.	.	.	16B-/	.	.	.	.	.	.	.	.	.	.	.	.	.	.	.	.	.	.
!	!	!	!	!	!	!	!	!	!	!	!	!	!	!	!	!	!	!	!	!LO:DY:rj	!	!LO:DY:rj	!	!LO:DY:rj
16BB-/	8BB-\	.	8r	.	.	16B-/	.	8ff 8dd\	ff	8ddd\	ff	8b-J 8B-/	.	8b- 8B-/	.	8dJ 8B-\	.	8bb- 8dd\	8ryy	ff	8ff 8dd\	ff	8fff 8ddd\	ff
16BB-/	.	.	.	.	.	[16B-/JJ	.	.	.	.	.	.	.	.	.	.	.	.	.	.	.	.	.	.
*	*	*	*	*	*	*	*	*tremolo	*	*tremolo	*	*	*	*	*	*tremolo	*	*tremolo	*	*	*tremolo	*	*tremolo	*
16BB-/	8BB-\	.	4r	.	.	16B-/LL]	.	8ffL 8dd\	.	8bb-\L	.	8b-L 8B-/	.	8b- 8B-/	.	8dL 8F\	.	8ffL 8dd\	4.ryy	.	8ddL 8b-\	.	8dddL 8bb-\	.
16BB-/	.	.	.	.	.	16B-/	.	.	.	.	.	.	.	.	.	.	.	.	.	.	.	.	.	.
16BB-/	8BB-\	.	.	.	.	16B-/	.	8ff 8dd\	.	8bb-\	.	8b- 8B-/	.	8b- 8B-/	.	8d 8F\	.	8ff 8dd\	.	.	8dd 8b-\	.	8ddd 8bb-\	.
16BB-/	.	.	.	.	.	16B-/	.	.	.	.	.	.	.	.	.	.	.	.	.	.	.	.	.	.
!LO:TX:b:t=7:color=grey	!	!	!	!	!	!	!	!	!	!	!	!	!	!	!	!	!	!	!	!	!	!	!	!
16BB-/	8BB-\J	.	8r	.	.	16B-/	.	8ffJ 8dd\	.	8bb-\J	.	8b-J 8B-/	.	8b-J 8B-/	.	8dJ 8F\	.	8ffJ 8dd\	.	.	8ddJ 8b-\	.	8dddJ 8bb-\	.
16BB-/JJ	.	.	.	.	.	16B-/JJ	.	.	.	.	.	.	.	.	.	.	.	.	.	.	.	.	.	.
*	*	*	*	*	*	*	*	*	*	*	*	*	*	*	*	*	*	*v	*v	*	*	*	*	*
=29	=29	=29	=29	=29	=29	=29	=29	=29	=29	=29	=29	=29	=29	=29	=29	=29	=29	=29	=29	=29	=29	=29	=29
*	*tremolo	*	*	*	*	*	*	*Xtremolo	*	*	*	*	*	*	*	*	*	*	*	*	*	*	*
16BB-/LL	8BB-\L	.	2.r	.	.	16B-/LL	.	8ff 8dd\	.	8ff\L	.	8fL 8B-/	.	8b-L 8B-/	.	8dL 8F\	.	8ddL 8b-\	.	8b-L 8f/	.	8bb-L 8ff\	.
16BB-/	.	.	.	.	.	16B-/	.	.	.	.	.	.	.	.	.	.	.	.	.	.	.	.	.
16BB-/	8BB-\	.	.	.	.	16B-/	.	8b-L 8d/	.	8ff\	.	8f 8B-/	.	8b- 8B-/	.	8d 8F\	.	8dd 8b-\	.	8b- 8f/	.	8bb- 8ff\	.
16BB-/	.	.	.	.	.	16B-/	.	.	.	.	.	.	.	.	.	.	.	.	.	.	.	.	.
16BB-/	8BB-\	.	.	.	.	16B-/	.	8b-J 8d/	.	8ff\J	.	8fJ 8B-/	.	8b- 8B-/	.	8d 8F\	.	8ddJ 8b-\	.	8b-J 8f/	.	8bb-J 8ff\	.
16BB-/	.	.	.	.	.	16B-/	.	.	.	.	.	.	.	.	.	.	.	.	.	.	.	.	.
*	*	*	*	*	*	*	*	*tremolo	*	*	*	*	*	*	*	*	*	*	*	*	*	*	*
16BB-/	8BB-\	.	.	.	.	16B-/	.	8b-L 8d/	.	8dd\L	.	8dL 8B-/	.	8b- 8B-/	.	8d 8F\	.	8b-L 8d/	.	8ddL 8f/	.	8ffL 8dd\	.
16BB-/	.	.	.	.	.	16B-/	.	.	.	.	.	.	.	.	.	.	.	.	.	.	.	.	.
16BB-/	8BB-\	.	.	.	.	16B-/	.	8b- 8d/	.	8dd\	.	8d 8B-/	.	8b- 8B-/	.	8d 8F\	.	8b- 8d/	.	8dd 8f/	.	8ff 8dd\	.
16BB-/	.	.	.	.	.	16B-/	.	.	.	.	.	.	.	.	.	.	.	.	.	.	.	.	.
16BB-/	8BB-\J	.	.	.	.	16B-/	.	8b-J 8d/	.	8dd\J	.	8dJ 8B-/	.	8b-J 8B-/	.	8dJ 8F\	.	8b-J 8d/	.	8ddJ 8f/	.	8ffJ 8dd\	.
16BB-/JJ	.	.	.	.	.	16B-/JJ	.	.	.	.	.	.	.	.	.	.	.	.	.	.	.	.	.
*Xtremolo	*Xtremolo	*	*	*	*	*Xtremolo	*	*Xtremolo	*	*Xtremolo	*	*Xtremolo	*	*Xtremolo	*	*Xtremolo	*	*Xtremolo	*	*Xtremolo	*	*Xtremolo	*
=30:|!	=30:|!	=30:|!	=30:|!	=30:|!	=30:|!	=30:|!	=30:|!	=30:|!	=30:|!	=30:|!	=30:|!	=30:|!	=30:|!	=30:|!	=30:|!	=30:|!	=30:|!	=30:|!	=30:|!	=30:|!	=30:|!	=30:|!	=30:|!
*>C	*>C	*>C	*>C	*>C	*>C	*>C	*>C	*>C	*>C	*>C	*>C	*>C	*>C	*>C	*>C	*>C	*>C	*>C	*>C	*>C	*>C	*>C	*>C
*	*	*	*	*	*	*	*	*	*	*	*	*^	*	*	*	*	*	*	*	*	*	*	*
4BB-/	4BB-\	.	2.ryy	.	.	4B-/	.	4b- 4d/	.	4b-\	.	4B-/	4B-\	.	4b- 4B-/	.	4d 4F\	.	4b- 4d/	.	4b- 4d/	.	4ff 4dd\	.
8r	8ryy	.	.	.	.	8r	.	8r	.	8r	.	8r	8ryy	.	8r	.	8r	.	8r	.	8r	.	8r	.
8BB-/	8BB-\	sf	.	.	.	8b- 8f 8B-\	.	8ff 8dd 8d\	.	8bb- 8b- 8d\	.	8b- 8B-/	4.ryy	sf	8b- 8B-/	sf	8d 8F\	sf	8bb- 8b-\	sf	8dd 8f/	sf	8ddd 8bb-\	sf
8r	8ryy	.	.	.	.	8r	.	8r	.	8r	.	8r	.	.	8r	.	8r	.	8r	.	8r	.	8r	.
8r	8ryy	.	.	.	.	8r	.	8r	.	8r	.	8r	.	.	8r	.	8r	.	8r	.	8r	.	8r	.
*v	*v	*	*	*	*	*	*	*	*	*	*	*v	*v	*	*	*	*	*	*	*	*	*	*	*
!LO:TX:b:t=8:color=grey	!	!	!	!	!	!	!	!	!	!	!	!	!	!	!	!	!	!	!	!	!	!
!!LO:TX:t=4razy\nda Capo:color=grey
==	==	==	==	==	==	==	==	==	==	==	==	==	==	==	==	==	==	==	==	==	==	==
*-	*-	*-	*-	*-	*-	*-	*-	*-	*-	*-	*-	*-	*-	*-	*-	*-	*-	*-	*-	*-	*-	*-
!!!system-decoration: s1,s2,s3,s4,s5,s6,s7,s8,s9[(s10)]s11
!!!RDF**kern: < = below
!!!RDF**kern: > = above
!!!RDF**dynam: p = p.
!!!RDF**dynam: < = cres.
!!!RDF**kern: | = vertical stroke
!!!ENC: Katarzyna Serwa
!!!END: 2021-10-10
!!!ENC: Katarzyna Serwa
!!!END: 2021-09-06
